X:21168 
T:RAKES OF SOLLOHOD, The 
B:DMI.0454
Z:Nordberg/Black
R:slip jig
%Q:1/4=150
M:9/8
L:1/8
K:G
d2c A2G F2D|D2G G2A B2c|d2c A2G F2D|G2B A2F G2B|
d2c A2G F2D|D2G G2A B2c|d2c A2G F2D|G2B A2F G2A|]
G2B d2B c2A|G2B d2c B3|G2B d2B c2A|G2F G2A B3|
G2B d2B c2A|G2B d2c B3|def g2e d2B|A2G A2B c3|]
"final m.16"A2G A2B HG3|]

%%%

